X:5065
T:the Reconciliation
M:4/4
O:Scotland
R:Reel
Z:Richard Robinson 
%%TUNEURL: http://www.leeds.ac.uk/music/Info/RRTuneBk/gettune/00000ab0.html
%%ID:00000ab0
K:A
A2cA eA fA|eA fA ec Bc|A2cA eA fA|ec Bc AF EF|\
A2cA eA fA|eA fA ec Bc|
AB AF Ec df|ec Bc A2 :: cB |\
A2ce a2af|ef ed cd cB|
A2ce a2ag|fb ba gb eg|\
ag ae fa ec|dB cA BA FG|AB AF Ec df|ec Bc A2:|
